assets/icons/certificate-colorize.svg

<svg width="20" height="20" viewBox="0 0 20 20" fill="none" xmlns="http://www.w3.org/2000/svg">
<path d="M3.75 2.5C3.08696 2.5 2.45107 2.76339 1.98223 3.23223C1.51339 3.70107 1.25 4.33696 1.25 5V11.25H1.875C1.875 12.2725 2.36625 13.18 3.125 13.75V15H16.25C16.913 15 17.5489 14.7366 18.0178 14.2678C18.4866 13.7989 18.75 13.163 18.75 12.5V5C18.75 4.33696 18.4866 3.70107 18.0178 3.23223C17.5489 2.76339 16.913 2.5 16.25 2.5H3.75Z" fill="url(#paint0_linear_936_76903)"/>
<path d="M10.625 10C10.4592 10 10.3003 10.0658 10.1831 10.1831C10.0658 10.3003 10 10.4592 10 10.625C10 10.7908 10.0658 10.9497 10.1831 11.0669C10.3003 11.1842 10.4592 11.25 10.625 11.25H14.375C14.5408 11.25 14.6997 11.1842 14.8169 11.0669C14.9342 10.9497 15 10.7908 15 10.625C15 10.4592 14.9342 10.3003 14.8169 10.1831C14.6997 10.0658 14.5408 10 14.375 10H10.625Z" fill="url(#paint1_linear_936_76903)" fill-opacity="0.9"/>
<path d="M5.625 6.25C5.45924 6.25 5.30027 6.31585 5.18306 6.43306C5.06585 6.55027 5 6.70924 5 6.875C5 7.04076 5.06585 7.19973 5.18306 7.31694C5.30027 7.43415 5.45924 7.5 5.625 7.5H14.375C14.5408 7.5 14.6997 7.43415 14.8169 7.31694C14.9342 7.19973 15 7.04076 15 6.875C15 6.70924 14.9342 6.55027 14.8169 6.43306C14.6997 6.31585 14.5408 6.25 14.375 6.25H5.625Z" fill="url(#paint2_linear_936_76903)" fill-opacity="0.9"/>
<path d="M2.5 13.6797V18.1247C2.49995 18.2378 2.53063 18.3489 2.58875 18.446C2.64686 18.543 2.73025 18.6225 2.83 18.6759C2.92983 18.729 3.04219 18.7541 3.15512 18.7483C3.26804 18.7426 3.3773 18.7064 3.47125 18.6434L5 17.6247L6.52875 18.6447C6.59921 18.6915 6.67845 18.7236 6.76166 18.7389C6.84487 18.7542 6.93032 18.7524 7.01284 18.7337C7.09535 18.715 7.17321 18.6797 7.24169 18.6301C7.31018 18.5804 7.36786 18.5173 7.41125 18.4447C7.46937 18.3476 7.50004 18.2366 7.5 18.1234V13.6797C6.74329 14.1295 5.88031 14.3694 5 14.3747C4.11969 14.3694 3.25671 14.1295 2.5 13.6797Z" fill="url(#paint3_radial_936_76903)"/>
<path d="M8.75 11.25C8.75 11.7425 8.653 12.2301 8.46455 12.6851C8.27609 13.14 7.99987 13.5534 7.65165 13.9017C7.30343 14.2499 6.89003 14.5261 6.43506 14.7145C5.98009 14.903 5.49246 15 5 15C4.50754 15 4.01991 14.903 3.56494 14.7145C3.10997 14.5261 2.69657 14.2499 2.34835 13.9017C2.00013 13.5534 1.72391 13.14 1.53545 12.6851C1.347 12.2301 1.25 11.7425 1.25 11.25C1.25 10.2554 1.64509 9.30161 2.34835 8.59835C3.05161 7.89509 4.00544 7.5 5 7.5C5.99456 7.5 6.94839 7.89509 7.65165 8.59835C8.35491 9.30161 8.75 10.2554 8.75 11.25Z" fill="url(#paint4_radial_936_76903)"/>
<defs>
<linearGradient id="paint0_linear_936_76903" x1="1.875" y1="4.84375" x2="9.935" y2="16.5675" gradientUnits="userSpaceOnUse">
<stop stop-color="#0FAFFF"/>
<stop offset="1" stop-color="#2764E7"/>
</linearGradient>
<linearGradient id="paint1_linear_936_76903" x1="19.5" y1="17.75" x2="14.0287" y2="1.255" gradientUnits="userSpaceOnUse">
<stop stop-color="#9DEAFF"/>
<stop offset="1" stop-color="white"/>
</linearGradient>
<linearGradient id="paint2_linear_936_76903" x1="19.5" y1="17.75" x2="14.0288" y2="1.255" gradientUnits="userSpaceOnUse">
<stop stop-color="#9DEAFF"/>
<stop offset="1" stop-color="white"/>
</linearGradient>
<radialGradient id="paint3_radial_936_76903" cx="0" cy="0" r="1" gradientUnits="userSpaceOnUse" gradientTransform="translate(5 12.8884) rotate(90) scale(7.99072 11.0369)">
<stop stop-color="#163697"/>
<stop offset="1" stop-color="#29C3FF"/>
</radialGradient>
<radialGradient id="paint4_radial_936_76903" cx="0" cy="0" r="1" gradientUnits="userSpaceOnUse" gradientTransform="translate(-14.9561 -18.7497) rotate(56.615) scale(41.8631 35.8539)">
<stop offset="0.772" stop-color="#FFCD0F"/>
<stop offset="0.991" stop-color="#E67505"/>
</radialGradient>
</defs>
</svg>

<svg xmlns="http://www.w3.org/2000/svg" width="20" height="20" fill="none" viewBox="0 0 20 20"><path fill="url(#a)" d="M3.75 2.5A2.5 2.5 0 0 0 1.25 5v6.25h.625a3.12 3.12 0 0 0 1.25 2.5V15H16.25a2.5 2.5 0 0 0 2.5-2.5V5a2.5 2.5 0 0 0-2.5-2.5z"/><path fill="url(#b)" fill-opacity=".9" d="M10.625 10a.624.624 0 1 0 0 1.25h3.75a.624.624 0 1 0 0-1.25z"/><path fill="url(#c)" fill-opacity=".9" d="M5.625 6.25a.625.625 0 0 0 0 1.25h8.75a.625.625 0 1 0 0-1.25z"/><path fill="url(#d)" d="M2.5 13.68v4.445a.625.625 0 0 0 .971.519L5 17.625l1.529 1.02a.626.626 0 0 0 .971-.521V13.68a4.95 4.95 0 0 1-2.5.695 4.95 4.95 0 0 1-2.5-.695"/><path fill="url(#e)" d="M8.75 11.25a3.75 3.75 0 1 1-7.5 0 3.75 3.75 0 0 1 7.5 0"/><defs><linearGradient id="a" x1="1.875" x2="9.935" y1="4.844" y2="16.567" gradientUnits="userSpaceOnUse"><stop stop-color="#0fafff"/><stop offset="1" stop-color="#2764e7"/></linearGradient><linearGradient id="b" x1="19.5" x2="14.029" y1="17.75" y2="1.255" gradientUnits="userSpaceOnUse"><stop stop-color="#9deaff"/><stop offset="1" stop-color="#fff"/></linearGradient><linearGradient id="c" x1="19.5" x2="14.029" y1="17.75" y2="1.255" gradientUnits="userSpaceOnUse"><stop stop-color="#9deaff"/><stop offset="1" stop-color="#fff"/></linearGradient><radialGradient id="d" cx="0" cy="0" r="1" gradientTransform="matrix(0 7.99072 -11.0369 0 5 12.889)" gradientUnits="userSpaceOnUse"><stop stop-color="#163697"/><stop offset="1" stop-color="#29c3ff"/></radialGradient><radialGradient id="e" cx="0" cy="0" r="1" gradientTransform="rotate(56.615 9.927 -23.259)scale(41.8631 35.8539)" gradientUnits="userSpaceOnUse"><stop offset=".772" stop-color="#ffcd0f"/><stop offset=".991" stop-color="#e67505"/></radialGradient></defs></svg>
